X:17
T:Luciapolska
R:sl\"angpolska
C:Henrik Norbeck
H:13/12 1988
M:3/4
L:1/8
K:Dm
d2AA A2d2 d2e2 | f2ed d^cec A4 | a4 abag fgfe | d^cde ed^c=B A4 |
d2AA A2d2 d2e2 | f2ed d^cec A4 | a4 abag fgfe | d^cAc c2d2 d4 :|
|: a2F2 F2a2 a2gf | e2E2 E2g2 g2fe | d2D2 D2ef gfed |
d^cec A2A2 A2ag | a2F2 F2a2 a2gf | e2E2 E2g2 agfe | d2D2 D2ef gfed |
d^cec A2A2 A2A2 | A=B^cA defd e2a2 | fe^ce e2d2 d4 :|

